src/images/bee.inline.svg

<svg width="40" height="28" viewBox="0 0 40 28" fill="none" xmlns="http://www.w3.org/2000/svg">
<path d="M18.6279 5.10033C18.4438 5.10032 18.2671 5.02884 18.1369 4.90162C18.0067 4.77441 17.9334 4.60186 17.9334 4.42194C17.9325 3.6093 17.6017 2.83024 17.0135 2.2556C16.4253 1.68095 15.6278 1.3577 14.7959 1.35676C14.6118 1.35676 14.4351 1.28526 14.3049 1.15804C14.1747 1.03082 14.1015 0.858275 14.1015 0.678358C14.1015 0.49844 14.1747 0.325896 14.3049 0.198675C14.4351 0.0714539 14.6118 0 14.7959 0C15.9958 0.00143035 17.1462 0.467735 17.9947 1.29662C18.8432 2.12551 19.3205 3.24929 19.322 4.4215C19.3221 4.60143 19.2491 4.77402 19.1189 4.90131C18.9888 5.02862 18.8122 5.10022 18.6279 5.10033Z" fill="#231F20"/>
<path d="M21.5097 5.10015C21.3254 5.10013 21.1489 5.02865 21.0186 4.90143C20.8884 4.77422 20.8152 4.60167 20.8151 4.42175C20.8166 3.24944 21.2941 2.12558 22.1427 1.29669C22.9913 0.467799 24.1418 0.00155717 25.3419 0.000244141C25.526 0.000244141 25.7026 0.0717413 25.8328 0.198962C25.9631 0.326183 26.0362 0.498728 26.0362 0.678645C26.0362 0.858562 25.9631 1.0311 25.8328 1.15833C25.7026 1.28555 25.526 1.357 25.3419 1.357C24.5099 1.35792 23.7124 1.68116 23.1242 2.25579C22.536 2.83044 22.2051 3.60956 22.2041 4.42223C22.204 4.60207 22.1307 4.77448 22.0006 4.9016C21.8703 5.02873 21.6937 5.10015 21.5097 5.10015Z" fill="#231F20"/>
<path d="M10.8544 22.8839C8.31632 23.7725 6.18628 23.6824 4.77476 23.4155C2.83054 23.0483 1.69781 22.2408 1.52357 21.8901C1.43133 21.7041 1.50644 21.6509 1.578 21.607L10.3811 16.6256V15.0572L0.873507 20.4374L0.857386 20.4463C0.122692 20.8883 -0.111687 21.7063 0.273619 22.4818C0.754344 23.4488 2.45691 24.3588 4.51061 24.7469C5.25843 24.8869 6.01823 24.9569 6.77965 24.9558C8.27453 24.9558 10.0812 24.6909 12.0787 23.8719L11.7238 23.6717C11.3776 23.4756 11.0806 23.2064 10.8544 22.8839Z" fill="#231F20"/>
<path d="M39.1926 20.4473C39.1872 20.4441 39.1818 20.441 39.1764 20.4384L29.6689 15.0582V16.6266L38.4718 21.608C38.5439 21.6516 38.6192 21.7055 38.5268 21.8911C38.3525 22.2417 37.2199 23.0493 35.2756 23.4165C33.8643 23.683 31.7345 23.7732 29.1968 22.8849C28.9723 23.2064 28.6775 23.4753 28.3335 23.6719L27.9739 23.8746C29.9705 24.693 31.776 24.9575 33.2704 24.9575C34.0318 24.9585 34.7916 24.8885 35.5393 24.7485C37.593 24.3605 39.2957 23.4504 39.7763 22.4835C40.1617 21.7073 39.9271 20.8893 39.1926 20.4473Z" fill="#231F20"/>
<path d="M28.3306 11.2813L21.3685 7.35595C20.9611 7.12538 20.4987 7.0039 20.0279 7.00381C19.5572 7.00372 19.0947 7.12498 18.6872 7.35538L11.7233 11.2816C11.3165 11.5116 10.9786 11.8419 10.7431 12.2393C10.5076 12.6368 10.383 13.0875 10.3814 13.5467V21.4027C10.3826 21.8627 10.5071 22.3143 10.7426 22.7126C10.9782 23.1109 11.3164 23.4419 11.7238 23.6727L18.684 27.5969C19.0916 27.828 19.5543 27.9498 20.0254 27.95C20.4966 27.9503 20.9593 27.829 21.3671 27.5984L28.3331 23.6712C28.7386 23.4394 29.0751 23.1082 29.3093 22.7103C29.5435 22.3125 29.6673 21.8618 29.6685 21.4028V13.5468C29.6669 13.088 29.5425 12.6376 29.3079 12.2403C29.0732 11.8429 28.7363 11.5123 28.3306 11.2813ZM12.4186 12.4563L14.6712 11.1863H25.3832L27.6332 12.4548C27.8288 12.5661 27.9914 12.7254 28.1047 12.9169C28.2181 13.1084 28.2782 13.3255 28.2793 13.5468V15.2691H11.7704V13.547C11.7715 13.3258 11.8319 13.1086 11.9456 12.9172C12.0593 12.7258 12.2224 12.567 12.4186 12.4563ZM27.6364 22.4977L25.4069 23.7547H14.648L12.4193 22.4982C12.2226 22.3869 12.0591 22.2272 11.9453 22.035C11.8314 21.8428 11.7711 21.6249 11.7704 21.4028V19.6722H28.2798V21.4028C28.2792 21.6242 28.2196 21.8416 28.1068 22.0337C27.994 22.2257 27.8319 22.3857 27.6364 22.4977Z" fill="#231F20"/>
</svg>

<svg width="40" height="28" fill="none" xmlns="http://www.w3.org/2000/svg"><path d="M18.628 5.1a.703.703 0 0 1-.491-.198.67.67 0 0 1-.204-.48c0-.813-.331-1.592-.92-2.166a3.18 3.18 0 0 0-2.217-.9.703.703 0 0 1-.491-.198.67.67 0 0 1 0-.96.703.703 0 0 1 .49-.198c1.2.001 2.351.468 3.2 1.297a4.376 4.376 0 0 1 1.327 3.125.67.67 0 0 1-.203.48.703.703 0 0 1-.491.198zM21.51 5.1a.703.703 0 0 1-.491-.199.671.671 0 0 1-.204-.48 4.376 4.376 0 0 1 1.328-3.124C22.99.467 24.142.002 25.342 0c.184 0 .36.072.49.199a.67.67 0 0 1 0 .96.703.703 0 0 1-.49.198 3.18 3.18 0 0 0-2.218.899 3.034 3.034 0 0 0-.92 2.166.67.67 0 0 1-.203.48.703.703 0 0 1-.491.198zM10.854 22.884c-2.538.889-4.668.798-6.08.532-1.943-.368-3.076-1.175-3.25-1.526-.093-.186-.018-.24.054-.283l8.803-4.981v-1.569l-9.507 5.38-.017.01c-.734.441-.969 1.26-.583 2.035.48.967 2.183 1.877 4.237 2.265.747.14 1.507.21 2.269.209 1.495 0 3.301-.265 5.299-1.084l-.355-.2a2.666 2.666 0 0 1-.87-.788zM39.193 20.447a.217.217 0 0 0-.017-.009l-9.507-5.38v1.569l8.803 4.981c.072.044.147.098.055.283-.175.35-1.307 1.158-3.251 1.526-1.412.266-3.542.356-6.08-.532-.224.321-.519.59-.863.787l-.36.203c1.998.818 3.803 1.082 5.297 1.082.762.002 1.522-.069 2.27-.209 2.053-.388 3.756-1.298 4.236-2.265.386-.776.151-1.594-.583-2.036z" fill="#231F20"/><path d="M28.33 11.281 21.37 7.356a2.724 2.724 0 0 0-2.682 0l-6.964 3.926a2.66 2.66 0 0 0-.98.957c-.235.398-.36.848-.362 1.308v7.856c.002.46.126.911.362 1.31.235.398.573.729.98.96l6.961 3.924a2.723 2.723 0 0 0 2.683.001l6.966-3.927c.406-.232.742-.563.976-.96a2.59 2.59 0 0 0 .36-1.308v-7.856a2.586 2.586 0 0 0-.361-1.307 2.665 2.665 0 0 0-.977-.959zM12.42 12.456l2.252-1.27h10.712l2.25 1.269c.196.111.358.27.472.462.113.191.173.409.174.63v1.722H11.77v-1.722c.002-.221.062-.438.176-.63.113-.191.276-.35.473-.46zm15.217 10.042-2.23 1.257H14.649l-2.229-1.257a1.286 1.286 0 0 1-.474-.463 1.247 1.247 0 0 1-.175-.632v-1.73h16.51v1.73c0 .221-.06.439-.173.63a1.287 1.287 0 0 1-.47.465z" fill="#231F20"/></svg>
